X: 1
T: Something Else
M: 4/4
L: 1/8
R: single reel
K: Gmaj
eged BG~G2|DEFG ABcA|GEED E2DE|1 GBAF G2Bd:|
~e3g ~f3a|g2dc BdAc|BEED E2DE|GBAF GABd|
~e3g ~f3a|g2dc BdAc|Bdgb a2ga|bgab gfed||
